X: 924
T: Alister McAlister
R: strathspey
M: 4/4
K: Aminor
e|:c<A A>G E<AA>B|c<AA>c c<ee>d|c<A A>G E<AA>c|B<GG>B d2 d>B:|
c>de>f g>ag>e|c>de>f g2 g>e|c>de>f g>ag>e|B<GG>B d2 d>B|
c>de>f g>ag>e|c>de>f g2 g>a|_b>ga>^f g>d=f>d|B<GG>B d4||

